src/icons/volume-high.svg

<svg xmlns="http://www.w3.org/2000/svg" width="512" height="512" viewBox="0 0 512 512">
    <path d="M237 364.7V134.3l-72 66.5H86v97.1h79l72 66.8zm42.6-39.5c15.5-21.1 24.9-47.3 24.9-75.6 0-28.3-9.4-54.5-24.9-75.7l-15.5 11.5c13.2 18 21.1 39.9 21.1 64.1 0 24-7.9 46.1-21.1 64l15.5 11.7zm50.6 34.8c22.7-30.9 36.4-69.2 36.4-110.6 0-41.4-13.7-79.6-36.4-110.6l-15.5 11.7c20.4 27.6 32.6 61.8 32.6 98.9 0 37.1-12.2 71.3-32.6 98.9l15.5 11.7z"/>
    <path d="M362.8 115.5c27.6 37.4 44 83.8 44 134s-16.4 96.6-44 134l15.5 11.7c30-40.6 47.7-91 47.7-145.7 0-54.7-17.7-105-47.7-145.7l-15.5 11.7z"/>
</svg>

<?xml version="1.0" encoding="UTF-8"?>
<svg width="512px" height="512px" viewBox="0 0 512 512" version="1.1" xmlns="http://www.w3.org/2000/svg" xmlns:xlink="http://www.w3.org/1999/xlink">
    <!-- Generator: Sketch 62 (91390) - https://sketch.com -->
    <title>volume-high</title>
    <desc>Created with Sketch.</desc>
    <g id="volume-high" stroke="none" stroke-width="1" fill="none" fill-rule="evenodd">
        <path d="M237,364.7 L237,134.3 L165,200.8 L86,200.8 L86,297.9 L165,297.9 L237,364.7 Z M279.6,325.2 C295.1,304.1 304.5,277.9 304.5,249.6 C304.5,221.3 295.1,195.1 279.6,173.9 L264.1,185.4 C277.3,203.4 285.2,225.3 285.2,249.5 C285.2,273.5 277.3,295.6 264.1,313.5 L279.6,325.2 Z M330.2,360 C352.9,329.1 366.6,290.8 366.6,249.4 C366.6,208 352.9,169.8 330.2,138.8 L314.7,150.5 C335.1,178.1 347.3,212.3 347.3,249.4 C347.3,286.5 335.1,320.7 314.7,348.3 L330.2,360 L330.2,360 Z" id="Shape" fill="#000000" fill-rule="nonzero"></path>
        <path d="M362.8,115.5 C390.4,152.9 406.8,199.3 406.8,249.5 C406.8,299.7 390.4,346.1 362.8,383.5 L378.3,395.2 C408.3,354.6 426,304.2 426,249.5 C426,194.8 408.3,144.5 378.3,103.8 L362.8,115.5 Z" id="Path" fill="#000000" fill-rule="nonzero"></path>
    </g>
</svg>
